X: 35157
T: Rondeau
R: reel
M: 4/4
K: Dmajor
|:fe|d2A2d2e2|fgfe defg|a2aaa2b2|{ab}a2>g2f2fg|a2d'2a2a2|
f2ef gafg|1 e2A2e2e2|~e4z2:|2 eagf~e2>d2|d4z2||
FG|A2AAA2A2|F2D2dcde|f2ef gfed|edcB AGFG|
A2AAA2A2|F2D2dcde|f2ef gfed|a4z2fe|
d2A2d2e2|fgfe defg|a2aaa2b2|{ab}a2>g2f2fg|
a2d'2a2a2|f2ef gafg|eagf~e2>d2|d4z2||

